X:087
U: ~ = !turn!
%%topmargin 3cm
T:Hugh Gillespie's
B:Traditional Irish Fiddle Tunes. Randy Miller and Jack Perron.
Z:Transcribed by Ralph Palmer
S:Paddy Cronin
R:Reel
L:1/8
M:C|
K:D
DFAF {/A}GFEC | D2 FA dABG | FGAF {/A}GFGB | AGFD A,B,CE |
DFAF {/A}GFEC | D2 FA dABG | FdAF {/A}GFGB | [1 AGFD ED D2 :| [2 AGFD EDD ||
|:g | fd (3.d.d.d g2 ag | fd (3.d.d.d edcA | fd (3.d.d.d gfed | {/e}dcde fdde |
fg ((3.a.g.f) gfed | fd ~d2 ecAG | FGAF {/A}GFGB | [1 AGFD EDD :| [2 AGFD A,B,CE |]
